pix_core/e/paste_word.svg

<!DOCTYPE svg PUBLIC "-//W3C//DTD SVG 1.1//EN" "http://www.w3.org/Graphics/SVG/1.1/DTD/svg11.dtd" [
	<!ENTITY ns_flows "http://ns.adobe.com/Flows/1.0/">
]><svg xmlns="http://www.w3.org/2000/svg" width="16" height="16" viewBox="0 0 16 16" preserveAspectRatio="xMinYMid meet" overflow="visible"><path d="M12 5v-2.5c0-.3-.2-.5-.5-.5h-3.5v-1c0-.6-.5-1-1-1h-2c-.5 0-1 .4-1 1v1h-3.5c-.3 0-.5.2-.5.5v10c0 .3.2.5.5.5h4.5v3h7l3-3v-8h-3zm-7-4h2v1h-2v-1zm-3 3v-1h8v1h-8zm9 11h-5v-9h8v1.7h-1.4v.1c.2 0 .3 0 .4.1s.1.1.1.3c0 .1 0 .2 0 .2s-.1.3-.1.5l-.9 2.3-1-2.5c-.1-.3-.1-.5-.1-.6 0 0 0-.1 0-.1s.1-.1.1-.1c.1 0 .2 0 .4 0v-.2h-2.6v.1c.2 0 .3 0 .4.1s.2.1.2.2.2.3.3.6l.2.6-.8 2-1-2.6c-.2-.3-.2-.5-.2-.6 0-.1 0-.1.1-.2s.2-.1.4-.1v-.1h-2.4v.1c.2 0 .3.1.4.2s.2.4.4.8l1.7 4.3h.1l1.4-3.4.9 2.3v3zm1-.4v-1.6h1.6l-1.6 1.6zm.1-2.6l1.2-3.2c.1-.4.2-.6.2-.6.1-.2.2-.2.3-.3.1 0 .1-.1.2-.1v4.2h-1.9z" fill="#999"/></svg>

<!DOCTYPE svg PUBLIC "-//W3C//DTD SVG 1.1//EN" "http://www.w3.org/Graphics/SVG/1.1/DTD/svg11.dtd" [
	<!ENTITY ns_flows "http://ns.adobe.com/Flows/1.0/">
]><svg xmlns="http://www.w3.org/2000/svg" width="16" height="16" viewBox="0 0 16 16" preserveAspectRatio="xMinYMid meet" overflow="visible"><path d="M12 5V2.5c0-.3-.2-.5-.5-.5H8V1c0-.6-.5-1-1-1H5c-.5 0-1 .4-1 1v1H.5c-.3 0-.5.2-.5.5v10c0 .3.2.5.5.5H5v3h7l3-3V5h-3zM5 1h2v1H5V1zM2 4V3h8v1H2zm9 11H6V6h8v1.7h-1.4v.1c.2 0 .3 0 .4.1s.1.1.1.3c0 .1 0 .2 0 .2s-.1.3-.1.5l-.9 2.3-1-2.5c-.1-.3-.1-.5-.1-.6 0 0 0-.1 0-.1s.1-.1.1-.1c.1 0 .2 0 .4 0v-.2H8.9v.1c.2 0 .3 0 .4.1s.2.1.2.2.2.3.3.6l.2.6-.8 2-1-2.6C8 8.4 8 8.2 8 8.1c0-.1 0-.1.1-.2s.2-.1.4-.1v-.1H6.1v.1c.2 0 .3.1.4.2s.2.4.4.8l1.7 4.3h.1l1.4-3.4.9 2.3v3zm1-.4V13h1.6L12 14.6zm.1-2.6l1.2-3.2c.1-.4.2-.6.2-.6.1-.2.2-.2.3-.3.1 0 .1-.1.2-.1V12h-1.9z" fill="#999"/></svg>
